icon/pk/handwashing-fluid.svg

<svg viewBox="0 0 48 48" fill="none" xmlns="http://www.w3.org/2000/svg" height="1em" width="1em">
  <path d="M24 4V11" stroke="black" stroke-width="4" stroke-linecap="round" stroke-linejoin="round"/>
  <path d="M29 17V11H19V17" stroke="black" stroke-width="4" stroke-linecap="round" stroke-linejoin="round"/>
  <path d="M31 4H19.8C17.1419 4 15 5.2 15 8" stroke="black" stroke-width="4" stroke-linecap="round" stroke-linejoin="round"/>
  <path d="M38 26.9775V26C38 21.0294 33.9706 17 29 17H19C14.0294 17 10 21.0294 10 26V35C10 39.9706 14.0294 44 19 44H24" stroke="black" stroke-width="4" stroke-linecap="round" stroke-linejoin="round"/>
  <path d="M40 39.7692C40 42.1058 37.9853 44 35.5 44C33.0147 44 31 42.1058 31 39.7692C31 37.4326 33.9397 33 35.5 33C37.0603 33 40 37.4326 40 39.7692Z" fill="#2F88FF" stroke="black" stroke-width="4"/>
</svg>

<svg width="48" height="48" fill="none" xmlns="http://www.w3.org/2000/svg"><path d="M24 4v7M29 17v-6H19v6M31 4H19.8C17.142 4 15 5.2 15 8M38 26.977V26a9 9 0 0 0-9-9H19a9 9 0 0 0-9 9v9a9 9 0 0 0 9 9h5" stroke="#000" stroke-width="4" stroke-linecap="round" stroke-linejoin="round"/><path d="M40 39.77c0 2.336-2.015 4.23-4.5 4.23S31 42.106 31 39.77c0-2.337 2.94-6.77 4.5-6.77s4.5 4.433 4.5 6.77Z" fill="#2F88FF" stroke="#000" stroke-width="4"/></svg>
